svg/cloud-error.svg

<?xml version="1.0" encoding="UTF-8"?>
<svg xmlns="http://www.w3.org/2000/svg" xmlns:xlink="http://www.w3.org/1999/xlink" width="32" height="32" viewBox="0 0 32 32">
<path fill-rule="nonzero" fill="rgb(0%, 0%, 0%)" fill-opacity="1" d="M 26.960938 14.246094 C 26.96875 14.121094 26.972656 14.003906 26.972656 13.886719 C 26.972656 9.246094 23.195312 5.46875 18.554688 5.46875 C 15.351562 5.46875 12.421875 7.324219 11.015625 10.164062 C 10.285156 9.679688 9.425781 9.421875 8.546875 9.421875 C 6.1875 9.425781 4.234375 11.25 4.074219 13.601562 C 1.632812 14.496094 0.0078125 16.816406 0 19.414062 C 0.00390625 22.832031 2.773438 25.597656 6.191406 25.601562 L 26.300781 25.601562 C 29.449219 25.597656 31.996094 23.046875 32 19.902344 C 31.996094 17.011719 29.832031 14.582031 26.960938 14.246094 M 17.28125 22.199219 C 17.28125 22.328125 17.210938 22.398438 17.082031 22.398438 L 15.558594 22.398438 C 15.433594 22.398438 15.363281 22.328125 15.363281 22.199219 L 15.363281 20.65625 C 15.363281 20.53125 15.433594 20.476562 15.558594 20.476562 L 17.082031 20.476562 C 17.210938 20.476562 17.28125 20.53125 17.28125 20.65625 Z M 17.289062 19 C 17.289062 19.128906 17.238281 19.199219 17.109375 19.199219 L 15.558594 19.199219 C 15.429688 19.199219 15.359375 19.128906 15.359375 19 L 15.359375 11.71875 C 15.359375 11.59375 15.429688 11.519531 15.558594 11.519531 L 17.109375 11.519531 C 17.238281 11.519531 17.289062 11.59375 17.289062 11.71875 Z M 17.289062 19 "/>
</svg>

<svg role="img" viewBox="0 0 32 32" height="32" width="32" xmlns="http://www.w3.org/2000/svg"><path d="M26.96 14.246c.009-.125.013-.242.013-.36 0-4.64-3.778-8.417-8.418-8.417-3.203 0-6.133 1.855-7.54 4.695a4.452 4.452 0 0 0-2.468-.742 4.487 4.487 0 0 0-4.473 4.18A6.204 6.204 0 0 0 0 19.414a6.198 6.198 0 0 0 6.191 6.188h20.11a5.704 5.704 0 0 0 5.699-5.7 5.701 5.701 0 0 0-5.04-5.656M17.282 22.2c0 .13-.07.2-.199.2H15.56c-.125 0-.196-.07-.196-.2v-1.543c0-.125.07-.18.196-.18h1.523c.129 0 .2.055.2.18Zm.008-3.2c0 .129-.05.2-.18.2h-1.55c-.13 0-.2-.071-.2-.2v-7.281c0-.125.07-.2.2-.2h1.55c.13 0 .18.075.18.2Zm0 0"/></svg>
